Yaru++/apps/scalable/winetricks.svg

<svg height="256" width="256" xmlns="http://www.w3.org/2000/svg" xmlns:xlink="http://www.w3.org/1999/xlink"><linearGradient id="a" gradientUnits="userSpaceOnUse" x1="88" x2="488" y1="88" y2="488"><stop offset="0" stop-opacity=".588235"/><stop offset="1" stop-opacity=".205556"/></linearGradient><filter id="b" color-interpolation-filters="sRGB" height="1.088" width="1.106" x="-.05" y="-.04"><feGaussianBlur stdDeviation="8.48"/></filter><filter id="c" color-interpolation-filters="sRGB" height="1.022" width="1.026" x="-.01" y="-.01"><feGaussianBlur stdDeviation="2.12"/></filter><filter id="d" color-interpolation-filters="sRGB" height="1.076" width="1.129" x="-.07" y="-.04"><feGaussianBlur stdDeviation="2.813"/></filter><linearGradient id="e" gradientUnits="userSpaceOnUse" x1="285" x2="301" y1="102" y2="102"><stop offset="0" stop-color="#e7e7e7"/><stop offset="1" stop-color="#fff"/></linearGradient><linearGradient id="f" gradientUnits="userSpaceOnUse" x1="-223.246" x2="-207.24699" y1="206.87399" y2="206.87399"><stop offset="0" stop-color="#3b3b3b"/><stop offset="1" stop-color="#4f4f4f"/></linearGradient><path d="m141.84323 74c-70.59344 0-78.18921 7.250835-77.84323 77.98706v146.01294 146.01294c-.34598 70.73623 7.24979 77.98706 77.84323 77.98706h292.31354c70.59344 0 79.78033-7.27652 77.84323-77.98706v-146.01294-146.01294c0-70.737067-7.24979-77.98706-77.84323-77.98706z" filter="url(#c)" opacity=".1" transform="matrix(.5 0 0 .5 -16.116488 -20.825537)"/><path d="m141.84323 74c-70.59344 0-78.18921 7.250835-77.84323 77.98706v146.01294 146.01294c-.34598 70.73623 7.24979 77.98706 77.84323 77.98706h292.31354c70.59344 0 79.78033-7.27652 77.84323-77.98706v-146.01294-146.01294c0-70.737067-7.24979-77.98706-77.84323-77.98706z" fill="url(#a)" filter="url(#b)" opacity=".3" transform="matrix(.5 0 0 .5 -16.116488 -20.825235)"/><path d="m53.695112 13.174463c-36.098811 0-39.983002 3.69016-39.80608 39.68984v74.310167 74.31016c-.176922 35.99969 3.707269 39.68984 39.80608 39.68984h148.387318c36.09881 0 40.77464-3.70276 39.80608-39.68984v-74.31016-74.310167c0-36.00011-3.70727-39.68984-39.80608-39.68984z" opacity=".1"/><path d="m54.805134 239.17447c-35.29673 0-39.09461-3.62542-38.92162-38.99353v-73.00647-73.006479c-.17299-35.36812 3.62489-38.99353 38.92162-38.99353h146.156756c35.29671 0 38.92161 3.625 38.92161 38.99353v73.006479 73.00647c0 35.36853-3.6249 38.99353-38.92161 38.99353z" fill="#d01737"/><path d="m54.805392 15.174463c-35.296728 0-39.09487 3.62603-38.92188 38.99414v2c-.17299-35.36811 3.625152-38.99414 38.92188-38.99414h146.156238c35.29673 0 38.92188 3.62561 38.92188 38.99414v-2c0-35.36853-3.62515-38.99414-38.92188-38.99414z" fill="#fff" opacity=".3"/><path d="m54.810792 239.17447c-35.296731 0-39.094875-3.62603-38.921885-38.99414v-2c-.17299 35.36811 3.625154 38.99414 38.921885 38.99414h146.156238c35.29673 0 38.92188-3.62561 38.92188-38.99414v2c0 35.36853-3.62515 38.99414-38.92188 38.99414z" opacity=".2"/><path d="m127.88081 62.117431-31.114235 31.11422 31.114235 31.114259 31.11424-31.114259zm33.9428 33.94281-31.11423 31.114219 31.11423 31.11423 31.11423-31.11423zm-67.885607 0-31.11422 31.114219 31.11422 31.11423 31.114237-31.11423zm33.942807 33.942809-31.114235 31.11422 31.114235 31.11423 31.11424-31.11423z" fill="#fcfcfc" stroke-width="3.779714"/><g enable-background="new" transform="matrix(-.92134297 0 0 .92134297 482.54313534736 -86.19090543721)"><g fill="#141414" filter="url(#d)" opacity=".3" transform="matrix(.88287224 .46961325 -.46961325 .88287224 291.951425 -51.765062)"><g fill="#141414"><path d="m285 6v32h16v-32zm0 160v32h16v-32z" transform="matrix(-.9999508 0 0 .9999508 508.23235 104.87827)"/><path d="m-223.25 142.88h15.999v127.994h-15.999z" transform="scale(-1 1)"/></g></g><path d="m285 6v32h16v-32zm0 160v32h16v-32z" fill="url(#e)" transform="matrix(-.88282880269 -.46959014503 -.46959014503 .88282880269 689.40353305589 277.50179680086)"/><path d="m-223.25 142.88h15.999v127.994h-15.999z" fill="url(#f)" transform="matrix(-.88287224 -.46961325 -.46961325 .88287224 289.951525 -53.764962)"/></g></svg>

<?xml version="1.0" encoding="UTF-8" standalone="no"?>
<svg
   xmlns:osb="http://www.openswatchbook.org/uri/2009/osb"
   xmlns:dc="http://purl.org/dc/elements/1.1/"
   xmlns:cc="http://creativecommons.org/ns#"
   xmlns:rdf="http://www.w3.org/1999/02/22-rdf-syntax-ns#"
   xmlns:svg="http://www.w3.org/2000/svg"
   xmlns="http://www.w3.org/2000/svg"
   xmlns:xlink="http://www.w3.org/1999/xlink"
   xmlns:sodipodi="http://sodipodi.sourceforge.net/DTD/sodipodi-0.dtd"
   xmlns:inkscape="http://www.inkscape.org/namespaces/inkscape"
   width="256"
   height="256"
   version="1.1"
   id="svg87"
   sodipodi:docname="winetricks.svg"
   inkscape:version="0.92.4 (5da689c313, 2019-01-14)">
  <metadata
     id="metadata91">
    <rdf:RDF>
      <cc:Work
         rdf:about="">
        <dc:format>image/svg+xml</dc:format>
        <dc:type
           rdf:resource="http://purl.org/dc/dcmitype/StillImage" />
        <dc:title></dc:title>
      </cc:Work>
    </rdf:RDF>
  </metadata>
  <sodipodi:namedview
     pagecolor="#ffffff"
     bordercolor="#666666"
     borderopacity="1"
     objecttolerance="10"
     gridtolerance="10"
     guidetolerance="10"
     inkscape:pageopacity="0"
     inkscape:pageshadow="2"
     inkscape:window-width="1920"
     inkscape:window-height="1016"
     id="namedview89"
     showgrid="false"
     inkscape:zoom="3.4425878"
     inkscape:cx="128.6099"
     inkscape:cy="126.92923"
     inkscape:window-x="0"
     inkscape:window-y="27"
     inkscape:window-maximized="1"
     inkscape:current-layer="svg87" />
  <defs
     id="defs25">
    <linearGradient
       id="linearGradient5606"
       osb:paint="solid">
      <stop
         id="stop5608"
         offset="0"
         style="stop-color:#000000" />
    </linearGradient>
    <linearGradient
       id="linearGradient4526"
       osb:paint="solid">
      <stop
         id="stop4528"
         offset="0"
         style="stop-color:#ffffff" />
    </linearGradient>
    <linearGradient
       id="linearGradient3600-4"
       osb:paint="gradient">
      <stop
         id="stop3602-7"
         offset="0"
         style="stop-color:#f4f4f4" />
      <stop
         id="stop3604-6"
         offset="1"
         style="stop-color:#dbdbdb" />
    </linearGradient>
    <filter
       style="color-interpolation-filters:sRGB"
       id="filter1498"
       width="1.109"
       height="1.136"
       x="-.05"
       y="-.07">
      <feGaussianBlur
         id="feGaussianBlur1500"
         stdDeviation="1.36" />
    </filter>
    <filter
       style="color-interpolation-filters:sRGB"
       id="filter1502"
       width="1.109"
       height="1.136"
       x="-.05"
       y="-.07">
      <feGaussianBlur
         id="feGaussianBlur1504"
         stdDeviation="1.36" />
    </filter>
    <linearGradient
       id="linearGradient1694"
       x1="39.997"
       x2="263.997"
       y1="156"
       y2="156"
       gradientTransform="rotate(-90,125.52644,153.64533)"
       gradientUnits="userSpaceOnUse"
       xlink:href="#linearGradient3797-5" />
    <linearGradient
       id="linearGradient3797-5">
      <stop
         id="stop3801"
         offset="0"
         style="stop-color:#f7f7f7" />
      <stop
         id="stop3799"
         offset="1"
         style="stop-color:#e6e6e6" />
    </linearGradient>
    <linearGradient
       id="linearGradient4358"
       x1="88"
       x2="488"
       y1="88"
       y2="488"
       gradientUnits="userSpaceOnUse"
       xlink:href="#linearGradient4360" />
    <linearGradient
       id="linearGradient4360">
      <stop
         id="stop4362"
         offset="0"
         style="stop-color:#000000;stop-opacity:0.58823532" />
      <stop
         id="stop4366"
         offset="1"
         style="stop-color:#000000;stop-opacity:0.20555556" />
    </linearGradient>
    <filter
       style="color-interpolation-filters:sRGB"
       id="filter4380"
       width="1.106"
       height="1.088"
       x="-.05"
       y="-.04">
      <feGaussianBlur
         id="feGaussianBlur4382"
         stdDeviation="8.48" />
    </filter>
    <filter
       style="color-interpolation-filters:sRGB"
       id="filter4346"
       width="1.026"
       height="1.022"
       x="-.01"
       y="-.01">
      <feGaussianBlur
         id="feGaussianBlur4348"
         stdDeviation="2.12" />
    </filter>
    <filter
       style="color-interpolation-filters:sRGB"
       id="filter5415-36"
       width="1.1289999"
       height="1.076"
       x="-0.07"
       y="-0.039999999">
      <feGaussianBlur
         id="feGaussianBlur41-7"
         stdDeviation="2.813" />
    </filter>
    <linearGradient
       id="linearGradient1674"
       x1="285"
       x2="301"
       y1="102"
       y2="102"
       gradientUnits="userSpaceOnUse"
       xlink:href="#linearGradient1672" />
    <linearGradient
       id="linearGradient1672">
      <stop
         style="stop-color:#e7e7e7"
         id="stop7"
         offset="0" />
      <stop
         style="stop-color:#ffffff"
         id="stop9"
         offset="1" />
    </linearGradient>
    <linearGradient
       id="linearGradient1665"
       x1="-223.246"
       x2="-207.24699"
       y1="206.87399"
       y2="206.87399"
       gradientUnits="userSpaceOnUse"
       xlink:href="#linearGradient1663" />
    <linearGradient
       id="linearGradient1663">
      <stop
         style="stop-color:#3b3b3b"
         id="stop12"
         offset="0" />
      <stop
         style="stop-color:#4f4f4f"
         id="stop14"
         offset="1" />
    </linearGradient>
  </defs>
  <path
     style="opacity:0.1;filter:url(#filter4346)"
     d="M 141.84323,74 C 71.24979,74 63.65402,81.250835 64,151.98706 V 298 444.01294 C 63.65402,514.74917 71.24979,522 141.84323,522 H 434.15677 C 504.75021,522 513.9371,514.72348 512,444.01294 V 298 151.98706 C 512,81.249993 504.75021,74 434.15677,74 Z"
     transform="matrix(0.5,0,0,0.5,-16.116488,-20.825537)"
     id="path27" />
  <path
     d="M 141.84323,74 C 71.24979,74 63.65402,81.250835 64,151.98706 V 298 444.01294 C 63.65402,514.74917 71.24979,522 141.84323,522 H 434.15677 C 504.75021,522 513.9371,514.72348 512,444.01294 V 298 151.98706 C 512,81.249993 504.75021,74 434.15677,74 Z"
     transform="matrix(0.5,0,0,0.5,-16.116488,-20.825235)"
     style="opacity:0.3;fill:url(#linearGradient4358);filter:url(#filter4380)"
     id="path29" />
  <path
     style="opacity:0.1"
     d="m 53.695112,13.174463 c -36.098811,0 -39.983002,3.69016 -39.80608,39.68984 v 74.310167 74.31016 c -0.176922,35.99969 3.707269,39.68984 39.80608,39.68984 H 202.08243 c 36.09881,0 40.77464,-3.70276 39.80608,-39.68984 V 127.17447 52.864303 c 0,-36.00011 -3.70727,-39.68984 -39.80608,-39.68984 z"
     id="path31" />
  <path
     style="fill:#d01737;fill-opacity:1"
     d="m 54.805134,239.17447 c -35.29673,0 -39.09461,-3.62542 -38.92162,-38.99353 V 127.17447 54.167991 c -0.17299,-35.36812 3.62489,-38.99353 38.92162,-38.99353 H 200.96189 c 35.29671,0 38.92161,3.625 38.92161,38.99353 v 73.006479 73.00647 c 0,35.36853 -3.6249,38.99353 -38.92161,38.99353 z"
     id="path33" />
  <path
     style="opacity:0.3;fill:#ffffff"
     d="m 54.805392,15.174463 c -35.296728,0 -39.09487,3.62603 -38.92188,38.99414 v 2 c -0.17299,-35.36811 3.625152,-38.99414 38.92188,-38.99414 H 200.96163 c 35.29673,0 38.92188,3.62561 38.92188,38.99414 v -2 c 0,-35.36853 -3.62515,-38.99414 -38.92188,-38.99414 z"
     id="path83" />
  <path
     style="opacity:0.2"
     d="m 54.810792,239.17447 c -35.296731,0 -39.094875,-3.62603 -38.921885,-38.99414 v -2 c -0.17299,35.36811 3.625154,38.99414 38.921885,38.99414 H 200.96703 c 35.29673,0 38.92188,-3.62561 38.92188,-38.99414 v 2 c 0,35.36853 -3.62515,38.99414 -38.92188,38.99414 z"
     id="path85" />
  <path
     inkscape:connector-curvature="0"
     d="m 127.88081,62.117431 -31.114235,31.11422 31.114235,31.114259 31.11424,-31.114259 z m 33.9428,33.94281 -31.11423,31.114219 31.11423,31.11423 31.11423,-31.11423 z m -67.885607,0 -31.11422,31.114219 31.11422,31.11423 31.114237,-31.11423 z m 33.942807,33.942809 -31.114235,31.11422 31.114235,31.11423 31.11424,-31.11423 z"
     style="fill:#fcfcfc;stroke-width:3.77971363;fill-opacity:1"
     id="path29-3" />
  <g
     style="enable-background:new"
     transform="matrix(0.92134297,0,0,0.92134297,206.69598,-119.68038)"
     id="g111">
    <g
       style="enable-background:new"
       transform="matrix(-1,0,0,1,299.39682,36.348543)"
       id="g109">
      <g
         style="opacity:0.3;fill:#141414;filter:url(#filter5415-36)"
         transform="rotate(28.009195,249.7494,559.394)"
         id="g99">
        <g
           style="fill:#141414"
           id="g97">
          <path
             inkscape:connector-curvature="0"
             style="fill:#141414"
             d="m 285,6 v 32 h 16 V 6 Z m 0,160 v 32 h 16 v -32 z"
             transform="matrix(-0.9999508,0,0,0.9999508,508.23235,104.87827)"
             id="path93" />
          <rect
             style="fill:#141414"
             width="15.999"
             height="127.994"
             x="-223.25"
             y="142.88"
             transform="scale(-1,1)"
             id="rect95" />
        </g>
      </g>
      <g
         transform="rotate(28.009195,252.75866,554.38484)"
         id="g107">
        <g
           id="g105">
          <path
             inkscape:connector-curvature="0"
             style="fill:url(#linearGradient1674)"
             d="m 285,6 v 32 h 16 V 6 Z m 0,160 v 32 h 16 v -32 z"
             transform="matrix(-0.9999508,0,0,0.9999508,508.23235,104.87827)"
             id="path101" />
          <rect
             style="fill:url(#linearGradient1665)"
             width="15.999"
             height="127.994"
             x="-223.25"
             y="142.88"
             transform="scale(-1,1)"
             id="rect103" />
        </g>
      </g>
    </g>
  </g>
</svg>
